X: 14235
T: Funny Whistle, The
R: reel
M: 4/4
K: Bminor
dc|:BF(3FFF dedc|BF(3FFF fedc|BF(3FFF Bcde|fgfd c2 dc|
BF(3FFF dF(3FFF|eF(3FFF f3 d|efec dedB|1 ABcA F2 dc:|2 ABcA F2 DE||
|:Fdcd Bdcd|edce fBAB|Fdcd Bcde|fgfd c2 dc|
BF(3FFF dF(3FFF|eF(3FFF f3 d|efec dedB|1 ABcA F2 DE:|2 ABcA F2 dc||

